images/hp.svg

<svg width="115" height="22" viewBox="0 0 115 22" fill="none" xmlns="http://www.w3.org/2000/svg">
<path fill-rule="evenodd" clip-rule="evenodd" d="M32.3952 0H18.7614L18.1421 1.6469C23.5481 1.90327 27.8451 5.96744 27.8451 10.9429C27.8451 15.5676 24.1323 19.4046 19.2677 20.129L18.684 21.8963H32.3952C33.1634 21.8993 33.9011 21.5931 34.4455 21.0455C34.9898 20.4978 35.296 19.7537 35.2963 18.9775V2.90892C35.2963 1.28809 33.9969 0 32.3952 0ZM7.43342 10.9435C7.43342 15.0151 10.321 18.6087 14.3378 19.9148L13.6368 21.8963H2.89436C1.29573 21.8963 0 20.5722 0 18.9558V2.93126C-0.00101789 1.31471 1.29443 0.00301889 2.89436 0.000620767H13.9846L13.2891 1.95604C9.94133 3.75192 7.43342 7.36416 7.43342 10.9435ZM108.008 13.3558H101.673V21.9845H107.969C110.249 21.9845 110.403 19.759 110.403 18.5485V16.0108C110.403 14.4881 109.63 13.3558 108.008 13.3558ZM108.432 18.7832V16.3231C108.472 15.7774 108.086 15.1523 107.506 15.1523H103.642V20.1886H107.351C108.046 20.1886 108.432 19.5244 108.432 18.7832ZM98.9531 18.6305C99.4188 18.2381 99.7284 17.6509 99.7284 16.0835C99.7284 14.3205 98.5273 13.3409 97.1327 13.3409H91.4367V21.9994H93.3745V19.4524H96.7057C97.481 19.4524 97.8687 20.0793 97.8687 20.4319V21.9988H99.7284V20.1967C99.7284 19.6876 99.573 18.944 98.9531 18.6305ZM93.3739 17.6509H96.9379C97.6746 17.6509 97.8681 16.7495 97.8681 16.3194C97.8681 15.8873 97.6746 15.1436 96.7051 15.1436H93.3739V17.6509ZM86.0529 13.3577H83.5044L80.0676 20.7727V21.9826H81.6121L82.307 20.4214H87.2423L87.9458 21.9826H89.9548L86.0529 13.3577ZM84.7787 14.958L83.118 18.6267H86.432L84.7787 14.958ZM71.1087 21.9919V13.349H73.0827V16.595H73.9336L77.2992 13.349H79.93L75.7896 17.4163L79.2326 20.8578V21.9919H77.7624L74.0884 18.3933H73.0827V21.9919H71.1087ZM60.7422 19.9508V15.3894C60.7422 14.4155 61.7836 13.3626 62.7094 13.3626H67.4555C68.6904 13.4011 69.4222 14.6886 69.4222 15.4292V16.1691H67.4555C67.4156 15.7793 67.0691 15.1951 66.7607 15.1951H63.365C62.5939 15.1951 62.71 15.9748 62.71 15.9748V19.4052C62.71 20.0291 63.0953 20.1849 63.3269 20.1849H66.6833C67.4162 20.1849 67.4942 19.561 67.4942 19.1712H69.4228V19.9508C69.4228 21.2377 68.5362 21.9783 67.4561 21.9783H62.7487C61.2822 21.9783 60.7422 20.8472 60.7422 19.9508ZM55.9635 13.3409H53.4064L49.4154 22H51.5074L52.2053 20.4332H57.156L57.8619 22H59.8771L55.9635 13.3409ZM54.6844 14.9468L53.0188 18.6305H56.3119L54.6844 14.9468ZM47.203 13.354H40.9806V21.987H42.9515V19.5647H47.2024C48.3617 19.5647 49.6759 18.9011 49.6759 16.4789C49.6765 14.0182 48.2462 13.354 47.203 13.354ZM42.9515 17.7682H46.7392C47.5895 17.7682 47.5895 16.87 47.5895 16.4795C47.5895 16.0891 47.5895 15.1511 46.623 15.1511H42.9515V17.7682ZM40.9806 0.141535V8.77455H42.9515V5.33674H48.0914V8.77455H50.0624V0.141535H48.0914V3.54024H42.9515V0.141535H40.9806ZM53.4427 0.135948H60.0197V1.93679H54.0614V3.54024H59.0139V5.33922H54.0614V6.98177H60.0197V8.78076H53.3266C52.5525 8.78076 52.0886 8.15502 52.0886 7.64661V1.42714C52.0886 0.644357 52.5525 0.135948 53.4427 0.135948ZM75.9002 0.144639V7.48335C75.9002 8.14695 76.4028 8.77145 77.2912 8.77145H83.086V6.97556H77.8712V0.144639H75.9002ZM98.343 1.93493V8.78076H96.3702V1.93493H93.5256V0.134707H101.227V1.93493H98.343ZM107.469 8.78634V1.93121H110.355V0.12912H102.646V1.93121H105.494V8.78634H107.469ZM85.5073 0.139673H92.0794H92.08V1.93679H86.126V3.53962H91.0749V5.33736H86.126V6.97867H92.08V8.77641H85.3912C84.6171 8.77641 84.1538 8.1513 84.1538 7.64289V1.42963C84.1538 0.647461 84.6171 0.139673 85.5073 0.139673ZM70.5158 8.78945C69.934 8.78945 69.3724 7.90796 69.2557 7.47652L67.8027 2.94927L65.903 8.79007H64.7019C64.12 8.79007 63.6156 7.88871 63.4995 7.4579L61.1354 0.127257H63.1118L64.9347 6.04628L66.8725 0.166366H68.7322L70.67 6.04628L72.4916 0.127257H74.4693L71.6782 8.79007H70.5158V8.78945ZM113.025 0.0763544C113.535 0.0681472 114.026 0.272203 114.382 0.640632C114.755 1.01682 114.942 1.47246 114.942 2.00694C114.95 2.52317 114.748 3.01992 114.382 3.3807C114.008 3.75999 113.555 3.94994 113.025 3.94994C112.493 3.94994 112.042 3.76061 111.67 3.3807C111.3 3.00265 111.115 2.54515 111.115 2.00694C111.107 1.49298 111.31 0.998695 111.675 0.640632C112.048 0.265068 112.497 0.0763544 113.025 0.0763544ZM114.191 3.19323C113.887 3.51331 113.464 3.69098 113.025 3.68363C112.586 3.69144 112.163 3.51369 111.859 3.19323C111.546 2.88025 111.373 2.45129 111.381 2.00632C111.381 1.54571 111.541 1.15277 111.861 0.827483C112.183 0.500959 112.57 0.337077 113.026 0.337077C113.481 0.337077 113.87 0.500959 114.192 0.827483C114.512 1.15277 114.671 1.54571 114.671 2.00632C114.671 2.47065 114.512 2.86608 114.191 3.19323ZM15.0461 0L9.85222 14.6674V14.668H12.0457L14.5851 7.60848H15.2775C15.7385 7.60848 15.7385 7.94782 15.6619 8.3256L13.3919 14.668H15.6619C15.6619 14.668 17.624 9.3076 17.9705 8.17485C18.3164 7.04211 17.624 6.47574 16.2772 6.47574H14.9689L17.2775 0H15.0461ZM20.0814 6.4385H23.6719C24.7524 6.4385 25.8727 7.00727 25.2936 8.56164L23.6333 13.1869C23.3248 14.059 23.0542 14.6656 21.4325 14.6656H19.4024L17.1086 21.1852H14.9077L20.0814 6.4385ZM23.0542 8.14482C23.0542 8.14482 21.4325 12.656 21.3939 12.8836C21.3553 13.1112 21.1619 13.5281 20.7762 13.5281H19.8022L21.8959 7.57605H22.8613C23.2085 7.57605 23.1699 7.84152 23.0542 8.14482Z" fill="#36536B"/>
</svg>

<svg width="115" height="22" fill="none" xmlns="http://www.w3.org/2000/svg"><path fill-rule="evenodd" clip-rule="evenodd" d="M32.395 0H18.761l-.619 1.647c5.406.256 9.703 4.32 9.703 9.296 0 4.625-3.713 8.462-8.577 9.186l-.584 1.767h13.711a2.875 2.875 0 0 0 2.05-.85c.545-.548.851-1.292.851-2.069V2.91c0-1.62-1.3-2.909-2.9-2.909ZM7.433 10.944c0 4.071 2.888 7.665 6.905 8.97l-.701 1.982H2.894C1.296 21.896 0 20.572 0 18.956V2.93C-.001 1.315 1.294.003 2.894.001h11.09l-.695 1.955c-3.348 1.796-5.856 5.408-5.856 8.988Zm100.575 2.412h-6.335v8.629h6.296c2.28 0 2.434-2.226 2.434-3.436V16.01c0-1.523-.773-2.655-2.395-2.655Zm.424 5.427v-2.46c.04-.546-.346-1.17-.926-1.17h-3.864v5.036h3.709c.695 0 1.081-.665 1.081-1.406Zm-9.479-.152c.466-.393.775-.98.775-2.547 0-1.764-1.2-2.743-2.595-2.743h-5.696v8.658h1.938v-2.547h3.33c.776 0 1.164.627 1.164.98v1.567h1.86v-1.802c0-.51-.156-1.253-.776-1.566Zm-5.58-.98h3.565c.737 0 .93-.901.93-1.332 0-.432-.193-1.175-1.163-1.175h-3.331v2.507Zm-7.32-4.293h-2.549l-3.436 7.415v1.21h1.544l.695-1.562h4.935l.704 1.562h2.009l-3.902-8.625Zm-1.274 1.6-1.661 3.669h3.314l-1.653-3.669Zm-13.67 7.034v-8.643h1.974v3.246h.85l3.366-3.246h2.631l-4.14 4.067 3.443 3.442v1.134h-1.47l-3.675-3.599h-1.005v3.599h-1.974ZM60.742 19.95v-4.562c0-.973 1.042-2.026 1.967-2.026h4.746c1.235.038 1.967 1.326 1.967 2.066v.74h-1.966c-.04-.39-.387-.974-.695-.974h-3.396c-.771 0-.655.78-.655.78v3.43c0 .624.385.78.617.78h3.356c.733 0 .811-.624.811-1.014h1.929v.78c0 1.287-.887 2.027-1.967 2.027H62.75c-1.467 0-2.007-1.13-2.007-2.027Zm-4.778-6.61h-2.558L49.416 22h2.091l.698-1.567h4.951L57.862 22h2.015l-3.913-8.66Zm-1.28 1.606L53.02 18.63h3.293l-1.628-3.684Zm-7.481-1.593h-6.222v8.633h1.97v-2.422h4.251c1.16 0 2.474-.664 2.474-3.086 0-2.46-1.43-3.125-2.473-3.125Zm-4.252 4.414h3.788c.85 0 .85-.898.85-1.288s0-1.329-.966-1.329h-3.671v2.617ZM40.982.142v8.633h1.97V5.337h5.14v3.438h1.971V.142h-1.97V3.54h-5.14V.142H40.98ZM53.443.136h6.577v1.8H54.06V3.54h4.953v1.8H54.06v1.642h5.959V8.78h-6.693c-.774 0-1.238-.626-1.238-1.134v-6.22c0-.783.464-1.291 1.354-1.291ZM75.9.145v7.338c0 .664.503 1.288 1.391 1.288h5.795V6.976h-5.215V.145h-1.97Zm22.443 1.79V8.78H96.37V1.935h-2.844v-1.8h7.701v1.8h-2.884Zm9.126 6.851V1.931h2.886V.13h-7.709v1.802h2.848v6.855h1.975ZM85.507.14h6.573v1.797h-5.954V3.54h4.949v1.797h-4.949V6.98h5.954v1.797h-6.689c-.774 0-1.237-.625-1.237-1.133V1.43c0-.783.463-1.29 1.353-1.29ZM70.516 8.79c-.582 0-1.144-.882-1.26-1.313l-1.453-4.528-1.9 5.841h-1.201c-.582 0-1.086-.901-1.203-1.332L61.136.128h1.977l1.823 5.918 1.938-5.88h1.86l1.937 5.88L72.492.127h1.977L71.68 8.79h-1.163ZM113.025.075a1.846 1.846 0 0 1 1.357.565c.373.376.56.831.56 1.366a1.887 1.887 0 0 1-.56 1.374c-.374.379-.827.569-1.357.569-.532 0-.983-.19-1.355-.57a1.891 1.891 0 0 1-.555-1.373 1.874 1.874 0 0 1 .56-1.366 1.833 1.833 0 0 1 1.35-.565Zm1.166 3.117c-.304.32-.727.498-1.166.49a1.57 1.57 0 0 1-1.166-.49 1.638 1.638 0 0 1-.478-1.187c0-.46.16-.853.48-1.179.322-.326.709-.49 1.165-.49.455 0 .844.164 1.166.49.32.326.479.719.479 1.18 0 .464-.159.86-.48 1.186ZM15.046 0 9.852 14.667v.001h2.194l2.54-7.06h.691c.462 0 .462.34.385.718l-2.27 6.342h2.27s1.962-5.36 2.309-6.493c.345-1.133-.347-1.7-1.694-1.7H14.97L17.278 0h-2.232Zm5.035 6.439h3.59c1.081 0 2.202.568 1.623 2.123l-1.66 4.625c-.31.872-.58 1.479-2.201 1.479h-2.03l-2.294 6.52h-2.201L20.08 6.438Zm2.973 1.706s-1.621 4.511-1.66 4.739c-.039.227-.232.644-.618.644h-.974l2.094-5.952h.965c.348 0 .309.266.193.569Z" fill="#36536B"/></svg>
